svg/300/outlined/savings-fill.svg

<svg xmlns="http://www.w3.org/2000/svg" width="48" height="48" viewBox="0 -960 960 960"><path d="M640-524.616q14.692 0 25.038-10.346T675.384-560q0-14.692-10.346-25.038T640-595.384q-14.692 0-25.038 10.346T604.616-560q0 14.692 10.346 25.038T640-524.616Zm-320-100h200v-45.383H320v45.383ZM195.001-140.001q-31.692-109.385-63.346-217.692Q100.001-466 100.001-580q0-83.538 58.231-141.768 58.23-58.231 141.768-58.231h210.001q27.461-36.076 65.884-58.038 38.423-21.962 84.115-21.962 16.538 0 28.268 11.346 11.731 11.346 11.731 27.884 0 6.538-4.231 18.384-4.769 14.462-8.654 28.847-3.885 14.384-6.654 29.462l104.078 104.077h75.461v244.383L750.845-359.77l-65.846 219.769H500.001v-80H379.999v80H195.001Z"/></svg>

<svg xmlns="http://www.w3.org/2000/svg" width="48" height="48" viewBox="0 -960 960 960"><path d="M640-524.62q14.69 0 25.04-10.34 10.34-10.35 10.34-25.04t-10.34-25.04q-10.35-10.34-25.04-10.34t-25.04 10.34q-10.34 10.35-10.34 25.04t10.34 25.04q10.35 10.34 25.04 10.34Zm-320-100h200V-670H320v45.38ZM195-140q-31.69-109.39-63.34-217.69Q100-466 100-580q0-83.54 58.23-141.77Q216.46-780 300-780h210q27.46-36.08 65.89-58.04Q614.31-860 660-860q16.54 0 28.27 11.35Q700-837.31 700-820.77q0 6.54-4.23 18.38-4.77 14.47-8.66 28.85-3.88 14.39-6.65 29.46L784.54-640H860v244.38l-109.16 35.85L685-140H500v-80H380v80H195Z"/></svg>
